docs/svgs/room-gym.svg

<svg viewBox="0 0 24 24" height="24px" width="24px" fill="#44739e" xmlns="http://www.w3.org/2000/svg"><title>hue:room-gym</title><desc>Source: https://github.com/arallsopp/hass-hue-icons</desc><path d="M 17.25 6.75 C 17.664062 6.75 18 7.085938 18 7.5 L 18 16.5 C 18 16.914062 17.664062 17.25 17.25 17.25 L 14.25 17.25 C 13.835938 17.25 13.5 16.914062 13.5 16.5 L 13.5 14.25 L 10.5 14.25 L 10.5 16.5 C 10.5 16.914062 10.164062 17.25 9.75 17.25 L 6.75 17.25 C 6.335938 17.25 6 16.914062 6 16.5 L 6 7.5 C 6 7.085938 6.335938 6.75 6.75 6.75 L 9.75 6.75 C 10.164062 6.75 10.5 7.085938 10.5 7.5 L 10.5 9.75 L 13.5 9.75 L 13.5 7.5 C 13.5 7.085938 13.835938 6.75 14.25 6.75 Z M 3 9 C 3 8.585938 3.335938 8.25 3.75 8.25 L 4.5 8.25 L 4.5 15.75 L 3.75 15.75 C 3.335938 15.75 3 15.414062 3 15 L 3 13.5 C 2.171875 13.5 1.5 12.828125 1.5 12 C 1.5 11.171875 2.171875 10.5 3 10.5 Z M 21 10.5 C 21.828125 10.5 22.5 11.171875 22.5 12 C 22.5 12.828125 21.828125 13.5 21 13.5 L 21 15 C 21 15.414062 20.664062 15.75 20.25 15.75 L 19.5 15.75 L 19.5 8.25 L 20.25 8.25 C 20.664062 8.25 21 8.585938 21 9 Z M 21 10.5 "/></svg>

<svg viewBox="0 0 24 24" height="24px" width="24px" fill="#44739e" xmlns="http://www.w3.org/2000/svg"><title>hue:room-gym</title><desc>Source: https://github.com/arallsopp/hass-hue-icons</desc><path d="M17.25,6.75C17.66,6.75,18,7.09,18,7.5v9c0,0.41-0.34,0.75-0.75,0.75h-3c-0.41,0-0.75-0.34-0.75-0.75v-2.25h-3 v2.25c0,0.41-0.34,0.75-0.75,0.75h-3C6.34,17.25,6,16.91,6,16.5v-9c0-0.41,0.34-0.75,0.75-0.75h3c0.41,0,0.75,0.34,0.75,0.75v2.25h3 V7.5c0-0.41,0.34-0.75,0.75-0.75H17.25z M3,9c0-0.41,0.34-0.75,0.75-0.75H4.5v7.5H3.75C3.34,15.75,3,15.41,3,15v-1.5 c-0.83,0-1.5-0.67-1.5-1.5s0.67-1.5,1.5-1.5V9z M21,10.5c0.83,0,1.5,0.67,1.5,1.5s-0.67,1.5-1.5,1.5V15c0,0.41-0.34,0.75-0.75,0.75 H19.5v-7.5h0.75C20.66,8.25,21,8.59,21,9V10.5z"/></svg>
